icons/bank-card-2-fill.svg

<svg viewBox="0 0 24 24" fill="currentColor" xmlns="http://www.w3.org/2000/svg">
    <path d="M22.0049 10.9998V19.9998C22.0049 20.5521 21.5572 20.9998 21.0049 20.9998H3.00488C2.4526 20.9998 2.00488 20.5521 2.00488 19.9998V10.9998H22.0049ZM22.0049 6.99979H2.00488V3.99979C2.00488 3.4475 2.4526 2.99979 3.00488 2.99979H21.0049C21.5572 2.99979 22.0049 3.4475 22.0049 3.99979V6.99979Z"/>
</svg>

<svg xmlns="http://www.w3.org/2000/svg" viewBox="0 0 24 24">
    <g>
        <path fill="none" d="M0 0h24v24H0z"/>
        <path d="M22 11v9a1 1 0 0 1-1 1H3a1 1 0 0 1-1-1v-9h20zm0-4H2V4a1 1 0 0 1 1-1h18a1 1 0 0 1 1 1v3z"/>
    </g>
</svg>
